X: 19328
T: Jack Is Yet Alive
R: reel
M: 4/4
K: Gmajor
|:G3B A3c|dBcA BGFD|G3B A3c|dBcA G2G2:|
g2ga f2fg|efge afdf|g2ga f2fg|egfa g2G2|
gggg ffff|eeeg afdf|g2dB e2cA|dBcA G2G2||

